X:305
T: Der geistliche Buchsbaum
N: A0654A
O: Europa, Mitteleuropa, Deutschland
N: Babsts Gsgb 1545 II No. 51
R: Romanze, Ballade, Lied, religioeses Lied
M: 6/2
L: 1/4
K: G
G2 | G4G4A2B2 | c4c2A4
G2 | c4c4B2AG | A4A2A4
A2 | G4G4G2E2 | F6G2 | A4z2
B2 | c2B2A2G2 | A4G4
B4 | c4c2B4G2 | A4G6

